!!!COM: Budhapirthi, Bakhatbir
!!!CDT: 1857-1920
!!!OTL: National Anthem, Nepal
!!!ENC: Davis, Matthew J.
!!Vocal Line Only
**kern
*clefG2
*k[f#]
*G:
*M4/4
=1-
4d
=2
2b
2b
=3
4.cc
8b
4a
4d
=4
8.g
16g
4a
8.b
16b
4cc
=5
4dd
8.dd
16dd
4dd
=6
2b
2b
=7
4.cc
8b
4a
4d
=8
8.g
16a
8.b
16cc
8.dd
16d
8.e
16f#
=9
4g
8.g
16g
4g
4d
=10
4.dd
8ee
8.dd
16b
8.g
16b
=11
4.dd
8ee
4dd
4b
=12
4cc
8.cc
16cc
4b
8.b
16b
=13
4a
8.a
16a
4a
4d
=14
2g
2a
=15
2b
2cc
=16
4dd
6ee
6dd
6cc
2b
=17
2a
2g
==|!
*-
